svgs/thin/trash-slash.svg

<svg xmlns="http://www.w3.org/2000/svg" viewBox="0 0 640 512"><!--! Font Awesome Pro 6.0.0-alpha3 by @fontawesome - https://fontawesome.com License - https://fontawesome.com/license (Commercial License) --><path d="M636.1 497.7L12.99 1.73C11.53 .5664 9.771 0 8.025 0C5.674 0 3.336 1.029 1.738 3.012c-2.75 3.469-2.172 8.5 1.281 11.25l623.1 496C628.5 511.4 630.2 512 631.1 512c2.344 0 4.688-1.031 6.266-3.016C641 505.5 640.4 500.5 636.1 497.7zM536 80C540.4 80 544 76.42 544 72S540.4 64 536 64h-116.6l-20.95-41.88C391.6 8.469 377.9 0 362.7 0H277.3C262.1 0 248.4 8.469 241.6 22.11L220.6 64H194.2l20.13 16H536zM255.9 29.25C259.1 21.08 268.2 16 277.3 16h85.31c9.156 0 17.38 5.078 21.47 13.27L401.5 64H238.5L255.9 29.25zM495 135.5l-9.514 160l15.32 12.18l10.2-171.3C511.3 131.9 507.6 128 503 128C498.8 128 495.3 131.3 495 135.5zM437.8 496H202.2c-19.69 0-36.69-15.98-37.91-35.59L149.6 212.5L132.7 199.1l15.64 262.3C150.1 489.3 174.3 512 202.2 512h235.6c21.19 0 40.15-13.06 48.89-31.54l-13.45-10.69C468.1 484.8 454.1 496 437.8 496z"/></svg>

<svg xmlns="http://www.w3.org/2000/svg" viewBox="0 0 640 512"><!-- Font Awesome Pro 6.0.0-alpha2 by @fontawesome - https://fontawesome.com License - https://fontawesome.com/license (Commercial License) --><path d="M636.982 497.734L12.988 1.73C11.525 0.566 9.771 0 8.025 0C5.673 0 3.335 1.029 1.738 3.012C-1.012 6.48 -0.434 11.512 3.019 14.262L627.013 510.266C628.497 511.438 630.247 512 631.997 512C634.341 512 636.685 510.969 638.263 508.984C641.013 505.516 640.435 500.484 636.982 497.734ZM535.999 80C540.406 80 543.999 76.422 543.999 72S540.406 64 535.999 64H419.382L398.437 22.125C391.624 8.469 377.937 0 362.656 0H277.343C262.062 0 248.374 8.469 241.562 22.109L220.617 64H194.175L214.304 80H535.999ZM255.874 29.25C259.968 21.078 268.187 16 277.343 16H362.656C371.812 16 380.031 21.078 384.124 29.266L401.492 64H238.507L255.874 29.25ZM495.027 135.537L485.513 295.58L500.829 307.756L511.025 136.488C511.298 131.885 507.638 128 503.027 128C498.786 128 495.279 131.305 495.027 135.537ZM437.781 496H202.218C182.531 496 165.531 480.016 164.312 460.406L149.554 212.496L132.706 199.104L148.343 461.375C150.093 489.297 174.249 512 202.218 512H437.781C458.974 512 477.929 498.941 486.667 480.463L473.218 469.771C468.056 484.758 454.13 496 437.781 496Z"/></svg>
